app/dist/common/images/traffic-systems-se.svg

<svg fill="none" height="18" viewBox="0 0 18 18" width="18" xmlns="http://www.w3.org/2000/svg"><path d="m0 0h18v18h-18z" fill="#f0f3fa"/><g clip-rule="evenodd" fill="#009e3a" fill-rule="evenodd"><path d="m3.5 7c.27616 0 .5.22384.5.5s-.22384.5-.5.5-.5-.22384-.5-.5.22384-.5.5-.5z"/><path d="m3.49999 9h.00002c.275 0 .49999.26836.49999.59637v1.80723c0 .328-.22499.5964-.49999.5964h-.00002c-.275 0-.49999-.2684-.49999-.5964v-1.80723c0-.32801.22499-.59637.49999-.59637z"/><path d="m9.5 7c.27616 0 .5.22384.5.5s-.22384.5-.5.5-.5-.22384-.5-.5.22384-.5.5-.5z"/><path d="m9.49999 9h.00002c.275 0 .49999.26836.49999.59637v1.80723c0 .328-.22499.5964-.49999.5964h-.00002c-.275 0-.49999-.2684-.49999-.5964v-1.80723c0-.32801.22499-.59637.49999-.59637z"/><path d="m12.5 5c.275 0 .5.3097.5.68823v5.62357c0 .3785-.225.6882-.5.6882s-.5-.3097-.5-.6882v-5.62357c0-.37853.225-.68823.5-.68823z"/><path d="m11.6053 7h3.8052l.5895.5-.5579.5h-3.8368c-.3329 0-.6053-.225-.6053-.5s.2724-.5.6053-.5z"/><path d="m6.4442 7h.1116c.79431 0 1.4442.73786 1.4442 1.6711v2.6733c0 .3605-.19314.6556-.5.6556h-.01746c-.2894 0-.48254-.2774-.48254-.6174v-2.60313c0-.5-.08791-.77947-.48146-.77947-.39354 0-.51854.27947-.51854.77947v2.60313c0 .34-.19934.6174-.48877.6174h-.01123c-.30686 0-.5-.295-.5-.6556v-2.6733c0-.93327.64989-1.6711 1.4442-1.6711z"/></g></svg>

<!-- by TradingView --><svg width="18" height="18" viewBox="0 0 18 18" fill="none" xmlns="http://www.w3.org/2000/svg">
<rect width="18" height="18" fill="#F0F3FA"/>
<path fill-rule="evenodd" clip-rule="evenodd" d="M3.5 7C3.77616 7 4 7.22384 4 7.5C4 7.77616 3.77616 8 3.5 8C3.22384 8 3 7.77616 3 7.5C3 7.22384 3.22384 7 3.5 7Z" fill="#009E3A"/>
<path fill-rule="evenodd" clip-rule="evenodd" d="M3.49999 9H3.50001C3.77501 9 4 9.26836 4 9.59637V11.4036C4 11.7316 3.77501 12 3.50001 12H3.49999C3.22499 12 3 11.7316 3 11.4036V9.59637C3 9.26836 3.22499 9 3.49999 9Z" fill="#009E3A"/>
<path fill-rule="evenodd" clip-rule="evenodd" d="M9.5 7C9.77616 7 10 7.22384 10 7.5C10 7.77616 9.77616 8 9.5 8C9.22384 8 9 7.77616 9 7.5C9 7.22384 9.22384 7 9.5 7Z" fill="#009E3A"/>
<path fill-rule="evenodd" clip-rule="evenodd" d="M9.49999 9H9.50001C9.77501 9 10 9.26836 10 9.59637V11.4036C10 11.7316 9.77501 12 9.50001 12H9.49999C9.22499 12 9 11.7316 9 11.4036V9.59637C9 9.26836 9.22499 9 9.49999 9Z" fill="#009E3A"/>
<path fill-rule="evenodd" clip-rule="evenodd" d="M12.5 5C12.775 5 13 5.3097 13 5.68823V11.3118C13 11.6903 12.775 12 12.5 12C12.225 12 12 11.6903 12 11.3118V5.68823C12 5.3097 12.225 5 12.5 5Z" fill="#009E3A"/>
<path fill-rule="evenodd" clip-rule="evenodd" d="M11.6053 7H15.4105L16 7.5L15.4421 8H11.6053C11.2724 8 11 7.775 11 7.5C11 7.225 11.2724 7 11.6053 7Z" fill="#009E3A"/>
<path fill-rule="evenodd" clip-rule="evenodd" d="M6.4442 7H6.5558C7.35011 7 8 7.73786 8 8.6711V11.3444C8 11.7049 7.80686 12 7.5 12H7.48254C7.19314 12 7 11.7226 7 11.3826V8.77947C7 8.27947 6.91209 8 6.51854 8C6.125 8 6 8.27947 6 8.77947V11.3826C6 11.7226 5.80066 12 5.51123 12H5.5C5.19314 12 5 11.705 5 11.3444V8.6711C5 7.73783 5.64989 7 6.4442 7Z" fill="#009E3A"/>
</svg>
